X:1789
L:1/8
Q:1/4=110
M:6/8
K:G
"G" D3 G2 A | B d2- d2 z |"C" e3"D7" d2 c |"G" B3- B2 z |"D7" c3 A2 F |"G" G B2- B2 z | 
"A7" A3 e2 ^c |"D" d3-"D7" d2 z |"G" D3 G2 A | B d2- d2 z |"C" e3"D7" d2 c |"G" B3- B2 z | 
"C" c3"G/D" d2"^(C#dim)" e |"^(G/D)" d B2- B2 z |"D7" c3 B2 A |"G" G3- G2 z ||"G" d3"G#dim" d3 | 
"D7/A" d3"D7" F3 | DEF GA>A |"G" B3 G3 | d3"G#dim" d3 |"D/A" d3"D" F3 |"D/A" ABA"A7" GFE | 
"D" (D3"D7" d3) |"G" d3"G#dim" d3 |"D7/A" d3"D7" F3 | DEF GA>A |"G" B3 G3 | d3"B7" ^d3 | 
"Em" e3"Am" c3 |"G/D" BcB"D7" B2 A |"G" G3- G2 z |]

